.local/share/icons/Gruvbox-Plus-Dark/apps/16/labyrinth.svg

<svg width="16" height="16" version="1.1" xmlns="http://www.w3.org/2000/svg">
  <defs>
    <style id="current-color-scheme" type="text/css">.ColorScheme-Text { color:#ebdbb2; } .ColorScheme-Highlight { color:#458588; }</style>
  </defs>
  <path class="ColorScheme-Text" d="m4.02 8.718 2.87-0.718-2.87-0.718c-0.221-0.597-0.709-1.065-1.327-1.244 0.688-2.567 3.912-2.139 3.912-2.139-3.359-1.193-4.713 1.105-5.375 2.235-0.73 0.304-1.23 1.028-1.23 1.866 0 0.812 0.469 1.516 1.161 1.837 0.696 1.169 2.151 3.443 5.444 2.274 0 0-3.327 0.121-3.946-2.135 0.633-0.175 1.136-0.65 1.361-1.258zm3.599-5.755c-0.278 0-0.508 0.201-0.508 0.444v1.482c0 0.244 0.23 0.444 0.508 0.444h6.095c0.279 0 0.508-0.2 0.508-0.444v-1.482c0-0.243-0.229-0.444-0.508-0.444h-6.095zm1.203 4.148c-0.288 0-0.526 0.201-0.526 0.445v0.888c0 0.244 0.238 0.445 0.526 0.445h6.653c0.288 0 0.525-0.201 0.525-0.445v-0.888c0-0.244-0.237-0.445-0.525-0.445h-6.653zm-1.203 3.556c-0.278 0-0.508 0.2-0.508 0.444v1.482c0 0.243 0.23 0.444 0.508 0.444h6.095c0.279 0 0.508-0.201 0.508-0.444v-1.482c0-0.244-0.229-0.444-0.508-0.444h-6.095z" fill="currentColor"/>
</svg>

<svg xmlns="http://www.w3.org/2000/svg" style="isolation:isolate" width="16" height="16" viewBox="0 0 16 16">
 <defs>
  <style id="current-color-scheme" type="text/css">
   .ColorScheme-Text { color:#ebdbb2; } .ColorScheme-Highlight { color:#458588; }
  </style>
  <linearGradient id="arrongin" x1="0%" x2="0%" y1="0%" y2="100%">
   <stop offset="0%" style="stop-color:#d79921; stop-opacity:1"/>
   <stop offset="100%" style="stop-color:#b57614; stop-opacity:1"/>
  </linearGradient>
  <linearGradient id="aurora" x1="0%" x2="0%" y1="0%" y2="100%">
   <stop offset="0%" style="stop-color:#83a598; stop-opacity:1"/>
   <stop offset="100%" style="stop-color:#b16286; stop-opacity:1"/>
  </linearGradient>
  <linearGradient id="fitdance" x1="0%" x2="0%" y1="0%" y2="100%">
   <stop offset="0%" style="stop-color:#8ec07c; stop-opacity:1"/>
   <stop offset="100%" style="stop-color:#458588; stop-opacity:1"/>
  </linearGradient>
  <linearGradient id="oomox" x1="0%" x2="0%" y1="0%" y2="100%">
   <stop offset="0%" style="stop-color:#458588; stop-opacity:1"/>
   <stop offset="100%" style="stop-color:#928374; stop-opacity:1"/>
  </linearGradient>
  <linearGradient id="rainblue" x1="0%" x2="0%" y1="0%" y2="100%">
   <stop offset="0%" style="stop-color:#b8bb26; stop-opacity:1"/>
   <stop offset="100%" style="stop-color:#076678; stop-opacity:1"/>
  </linearGradient>
  <linearGradient id="sunrise" x1="0%" x2="0%" y1="0%" y2="100%">
   <stop offset="0%" style="stop-color: #fe8019; stop-opacity:1"/>
   <stop offset="100%" style="stop-color: #fabd2f; stop-opacity:1"/>
  </linearGradient>
  <linearGradient id="telinkrin" x1="0%" x2="0%" y1="0%" y2="100%">
   <stop offset="0%" style="stop-color: #83a598; stop-opacity:1"/>
   <stop offset="100%" style="stop-color: #83a598; stop-opacity:1"/>
  </linearGradient>
  <linearGradient id="60spsycho" x1="0%" x2="0%" y1="0%" y2="100%">
   <stop offset="0%" style="stop-color: #fb4934; stop-opacity:1"/>
   <stop offset="25%" style="stop-color: #fabd2f; stop-opacity:1"/>
   <stop offset="50%" style="stop-color: #fe8019; stop-opacity:1"/>
   <stop offset="100%" style="stop-color: #689d6a; stop-opacity:1"/>
  </linearGradient>
  <linearGradient id="90ssummer" x1="0%" x2="0%" y1="0%" y2="100%">
   <stop offset="0%" style="stop-color: #b16286; stop-opacity:1"/>
   <stop offset="20%" style="stop-color: #8ec07c; stop-opacity:1"/>
   <stop offset="50%" style="stop-color: #fabd2f; stop-opacity:1"/>
   <stop offset="100%" style="stop-color: #458588; stop-opacity:1"/>
  </linearGradient>
  <linearGradient id="cyberneon" x1="0%" x2="0%" y1="0%" y2="100%">
    <stop offset="0" style="stop-color:#83a598; stop-opacity:1"/>
    <stop offset="1" style="stop-color:#b16286; stop-opacity:1"/>
  </linearGradient>
  <clipPath id="_clipPath_XGrkoua1VE9Op1AHfE3VgJExBIYwtKZ4">
   <rect width="16" height="16"/>
  </clipPath>
 </defs>
 <g clip-path="url(#_clipPath_XGrkoua1VE9Op1AHfE3VgJExBIYwtKZ4)">
  <rect style="fill:currentColor" class="ColorScheme-Text" fill-opacity="0" width="16" height="16"/>
  <path style="fill:currentColor" class="ColorScheme-Text" fill-rule="evenodd" d="M 4.02 8.718 L 6.89 8 L 6.89 8 L 6.89 8 L 4.02 7.282 C 3.799 6.685 3.311 6.217 2.693 6.038 L 2.693 6.038 C 3.381 3.471 6.605 3.899 6.605 3.899 C 3.246 2.706 1.892 5.004 1.23 6.134 C 0.5 6.438 0 7.162 0 8 C 0 8.812 0.469 9.516 1.161 9.837 C 1.857 11.006 3.312 13.28 6.605 12.111 C 6.605 12.111 3.278 12.232 2.659 9.976 L 2.659 9.976 C 3.292 9.801 3.795 9.326 4.02 8.718 Z M 7.619 2.963 C 7.341 2.963 7.111 3.164 7.111 3.407 L 7.111 4.889 C 7.111 5.133 7.341 5.333 7.619 5.333 L 13.714 5.333 C 13.993 5.333 14.222 5.133 14.222 4.889 L 14.222 3.407 C 14.222 3.164 13.993 2.963 13.714 2.963 L 7.619 2.963 L 7.619 2.963 L 7.619 2.963 Z M 8.822 7.111 C 8.534 7.111 8.296 7.312 8.296 7.556 L 8.296 8.444 C 8.296 8.688 8.534 8.889 8.822 8.889 L 15.475 8.889 C 15.763 8.889 16 8.688 16 8.444 L 16 7.556 C 16 7.312 15.763 7.111 15.475 7.111 L 8.822 7.111 L 8.822 7.111 L 8.822 7.111 Z M 7.619 10.667 C 7.341 10.667 7.111 10.867 7.111 11.111 L 7.111 12.593 C 7.111 12.836 7.341 13.037 7.619 13.037 L 13.714 13.037 C 13.993 13.037 14.222 12.836 14.222 12.593 L 14.222 11.111 C 14.222 10.867 13.993 10.667 13.714 10.667 L 7.619 10.667 L 7.619 10.667 Z"/>
 </g>
</svg>
